src/platform/cursors/svg/vertical-text.svg

<svg viewBox="0 0 32 32" xmlns="http://www.w3.org/2000/svg"><defs><filter id="a" x="-.41143" y="-.16941" width="1.8229" height="1.3388" color-interpolation-filters="sRGB"><feGaussianBlur stdDeviation="1.2"/></filter></defs><g color="#000"><path transform="rotate(-90 66.98 222.98)" d="M270 164v3h2v11h-2v3h7v-3h-2v-11h2v-3z" filter="url(#a)" opacity=".35" style="isolation:auto;mix-blend-mode:normal;text-decoration-color:#000;text-decoration-line:none;text-decoration-style:solid;text-indent:0;text-transform:none;white-space:normal"/><path d="M300 166a1.0001 1.0001 0 0 0-1 1v5a1.0001 1.0001 0 0 0 1 1h1a1.0001 1.0001 0 0 0 1-1v-1h11v1a1.0001 1.0001 0 0 0 1 1h1a1.0001 1.0001 0 0 0 1-1v-5a1.0001 1.0001 0 0 0-1-1h-1a1.0001 1.0001 0 0 0-1 1v1h-11v-1a1.0001 1.0001 0 0 0-1-1h-1z" fill="#151515" style="font-feature-settings:normal;font-variant-alternates:normal;font-variant-caps:normal;font-variant-east-asian:normal;font-variant-ligatures:normal;font-variant-numeric:normal;font-variant-position:normal;font-variation-settings:normal;inline-size:0;isolation:auto;mix-blend-mode:normal;shape-margin:0;shape-padding:0;text-decoration-color:#000;text-decoration-line:none;text-decoration-style:solid;text-indent:0;text-orientation:mixed;text-transform:none;white-space:normal" transform="translate(-292 -154.04)"/><path d="M300 172h1v-2h13v2h1v-5h-1v2h-13v-2h-1z" fill="#fff" style="font-feature-settings:normal;font-variant-alternates:normal;font-variant-caps:normal;font-variant-east-asian:normal;font-variant-ligatures:normal;font-variant-numeric:normal;font-variant-position:normal;font-variation-settings:normal;inline-size:0;isolation:auto;mix-blend-mode:normal;shape-margin:0;shape-padding:0;text-decoration-color:#000;text-decoration-line:none;text-decoration-style:solid;text-indent:0;text-orientation:mixed;text-transform:none;white-space:normal" transform="translate(-292 -154.04)"/></g></svg>

<?xml version="1.0" encoding="UTF-8" standalone="no"?>
<svg
   xmlns:dc="http://purl.org/dc/elements/1.1/"
   xmlns:cc="http://creativecommons.org/ns#"
   xmlns:rdf="http://www.w3.org/1999/02/22-rdf-syntax-ns#"
   xmlns:svg="http://www.w3.org/2000/svg"
   xmlns="http://www.w3.org/2000/svg"
   xmlns:sodipodi="http://sodipodi.sourceforge.net/DTD/sodipodi-0.dtd"
   xmlns:inkscape="http://www.inkscape.org/namespaces/inkscape"
   width="32"
   height="32"
   version="1.1"
   viewBox="0 0 32 32"
   id="svg17"
   sodipodi:docname="vertical-text.svg"
   inkscape:version="1.0.1 (3bc2e813f5, 2020-09-07)">
  <metadata
     id="metadata21">
    <rdf:RDF>
      <cc:Work
         rdf:about="">
        <dc:format>image/svg+xml</dc:format>
        <dc:type
           rdf:resource="http://purl.org/dc/dcmitype/StillImage" />
        <dc:title></dc:title>
      </cc:Work>
    </rdf:RDF>
  </metadata>
  <sodipodi:namedview
     pagecolor="#ffffff"
     bordercolor="#666666"
     borderopacity="1"
     objecttolerance="10"
     gridtolerance="10"
     guidetolerance="10"
     inkscape:pageopacity="0"
     inkscape:pageshadow="2"
     inkscape:window-width="1920"
     inkscape:window-height="932"
     id="namedview19"
     showgrid="false"
     inkscape:zoom="23.90625"
     inkscape:cx="16"
     inkscape:cy="16"
     inkscape:window-x="0"
     inkscape:window-y="36"
     inkscape:window-maximized="1"
     inkscape:current-layer="svg17" />
  <defs
     id="defs5">
    <filter
       id="a"
       x="-.41143"
       y="-.16941"
       width="1.8229"
       height="1.3388"
       color-interpolation-filters="sRGB">
      <feGaussianBlur
         stdDeviation="1.2"
         id="feGaussianBlur2" />
    </filter>
  </defs>
  <g
     transform="translate(0 -1020.4)"
     id="g15">
    <g
       transform="translate(-292 866.36)"
       id="g13">
      <path
         transform="rotate(-90,290,154)"
         d="m270 164v3h2v11h-2v3h7v-3h-2v-11h2v-3z"
         color="#000000"
         color-rendering="auto"
         filter="url(#a)"
         image-rendering="auto"
         opacity=".35"
         shape-rendering="auto"
         solid-color="#000000"
         style="isolation:auto;mix-blend-mode:normal;text-decoration-color:#000000;text-decoration-line:none;text-decoration-style:solid;text-indent:0;text-transform:none;white-space:normal"
         id="path7" />
      <path
         style="color:#000000;font-style:normal;font-variant:normal;font-weight:normal;font-stretch:normal;font-size:medium;line-height:normal;font-family:sans-serif;font-variant-ligatures:normal;font-variant-position:normal;font-variant-caps:normal;font-variant-numeric:normal;font-variant-alternates:normal;font-variant-east-asian:normal;font-feature-settings:normal;font-variation-settings:normal;text-indent:0;text-align:start;text-decoration:none;text-decoration-line:none;text-decoration-style:solid;text-decoration-color:#000000;letter-spacing:normal;word-spacing:normal;text-transform:none;writing-mode:lr-tb;direction:ltr;text-orientation:mixed;dominant-baseline:auto;baseline-shift:baseline;text-anchor:start;white-space:normal;shape-padding:0;shape-margin:0;inline-size:0;clip-rule:nonzero;display:inline;overflow:visible;visibility:visible;isolation:auto;mix-blend-mode:normal;color-interpolation:sRGB;color-interpolation-filters:linearRGB;solid-color:#000000;solid-opacity:1;vector-effect:none;fill:#151515;fill-opacity:1;fill-rule:nonzero;stroke:none;stroke-width:2;stroke-linecap:round;stroke-linejoin:round;stroke-miterlimit:4;stroke-dasharray:none;stroke-dashoffset:0;stroke-opacity:1;color-rendering:auto;image-rendering:auto;shape-rendering:auto;text-rendering:auto;enable-background:accumulate;stop-color:#000000;stop-opacity:1;opacity:1"
         d="M 300 166 A 1.0001 1.0001 0 0 0 299 167 L 299 172 A 1.0001 1.0001 0 0 0 300 173 L 301 173 A 1.0001 1.0001 0 0 0 302 172 L 302 171 L 313 171 L 313 172 A 1.0001 1.0001 0 0 0 314 173 L 315 173 A 1.0001 1.0001 0 0 0 316 172 L 316 167 A 1.0001 1.0001 0 0 0 315 166 L 314 166 A 1.0001 1.0001 0 0 0 313 167 L 313 168 L 302 168 L 302 167 A 1.0001 1.0001 0 0 0 301 166 L 300 166 z "
         id="path848" />
      <path
         style="color:#000000;font-style:normal;font-variant:normal;font-weight:normal;font-stretch:normal;font-size:medium;line-height:normal;font-family:sans-serif;font-variant-ligatures:normal;font-variant-position:normal;font-variant-caps:normal;font-variant-numeric:normal;font-variant-alternates:normal;font-variant-east-asian:normal;font-feature-settings:normal;font-variation-settings:normal;text-indent:0;text-align:start;text-decoration:none;text-decoration-line:none;text-decoration-style:solid;text-decoration-color:#000000;letter-spacing:normal;word-spacing:normal;text-transform:none;writing-mode:lr-tb;direction:ltr;text-orientation:mixed;dominant-baseline:auto;baseline-shift:baseline;text-anchor:start;white-space:normal;shape-padding:0;shape-margin:0;inline-size:0;clip-rule:nonzero;display:inline;overflow:visible;visibility:visible;isolation:auto;mix-blend-mode:normal;color-interpolation:sRGB;color-interpolation-filters:linearRGB;solid-color:#000000;solid-opacity:1;vector-effect:none;fill:#ffffff;fill-opacity:1;fill-rule:nonzero;stroke:none;stroke-width:1;stroke-linecap:butt;stroke-linejoin:miter;stroke-miterlimit:4;stroke-dasharray:none;stroke-dashoffset:0;stroke-opacity:1;color-rendering:auto;image-rendering:auto;shape-rendering:auto;text-rendering:auto;enable-background:accumulate;stop-color:#000000"
         d="m 300,172 h 1 v -2 h 13 v 2 h 1 v -5 h -1 v 2 h -13 v -2 h -1 z"
         id="path852" />
    </g>
  </g>
</svg>
